packages/core/src/svgs/pyth.svg

<svg width="24" height="24" viewBox="0 0 24 24" fill="none" xmlns="http://www.w3.org/2000/svg">
<g clip-path="url(#clip0_31_16659)">
<path d="M0 0H24V24H0V0Z" fill="#110F24"/>
<path d="M13.7144 11.1431C13.7144 11.9702 13.003 12.4288 12.4287 12.4288V14.1431C13.0221 14.1431 13.6021 13.9671 14.0954 13.6375C14.5888 13.3078 14.9733 12.8393 15.2003 12.2911C15.4274 11.7429 15.4868 11.1397 15.3711 10.5578C15.2553 9.97585 14.9696 9.44131 14.55 9.02175C14.1305 8.60219 13.5959 8.31647 13.014 8.20071C12.432 8.08496 11.8288 8.14437 11.2807 8.37143C10.7325 8.59849 10.2639 8.98301 9.9343 9.47636C9.60466 9.9697 9.42871 10.5497 9.42871 11.1431V18.5145L11.143 20.1431V11.1431C11.143 10.5859 11.6016 9.85735 12.4287 9.85735C12.7697 9.85735 13.0967 9.99281 13.3378 10.2339C13.579 10.475 13.7144 10.8021 13.7144 11.1431Z" fill="#E6DAFE"/>
<path d="M12.4287 5.14308C11.5771 5.14116 10.735 5.32143 9.95888 5.67181C9.18273 6.02218 8.49052 6.53455 7.92872 7.17451C6.96038 8.26951 6.42675 9.68133 6.42872 11.1431V15.6431L8.143 17.2931V11.1431C8.143 8.90594 9.943 6.85737 12.4287 6.85737C14.9144 6.85737 16.7144 8.92737 16.7144 11.1431C16.7144 13.6288 14.6659 15.4288 12.4287 15.4288V17.1431C13.2166 17.1431 13.9969 16.9879 14.7248 16.6864C15.4528 16.3848 16.1142 15.9429 16.6714 15.3857C17.2285 14.8286 17.6705 14.1671 17.972 13.4392C18.2735 12.7112 18.4287 11.931 18.4287 11.1431C18.4287 10.3552 18.2735 9.57493 17.972 8.84698C17.6705 8.11903 17.2285 7.45759 16.6714 6.90044C16.1142 6.34329 15.4528 5.90133 14.7248 5.5998C13.9969 5.29828 13.2166 5.14308 12.4287 5.14308Z" fill="#E6DAFE"/>
</g>
<defs>
<clipPath id="clip0_31_16659">
<rect width="24" height="24" fill="white"/>
</clipPath>
</defs>
</svg>

<svg xmlns="http://www.w3.org/2000/svg" width="24" height="24" fill="none" viewBox="0 0 24 24"><g clip-path="url(#a)"><path fill="#110F24" d="M0 0h24v24H0z"/><path fill="#E6DAFE" d="M13.714 11.143c0 .827-.711 1.286-1.285 1.286v1.714a3 3 0 1 0-3-3v7.372l1.714 1.628v-9c0-.557.459-1.286 1.286-1.286a1.286 1.286 0 0 1 1.285 1.286"/><path fill="#E6DAFE" d="M12.429 5.143a5.97 5.97 0 0 0-4.5 2.032 5.98 5.98 0 0 0-1.5 3.968v4.5l1.714 1.65v-6.15c0-2.237 1.8-4.286 4.286-4.286s4.285 2.07 4.285 4.286c0 2.486-2.048 4.286-4.285 4.286v1.714a6 6 0 0 0 0-12"/></g><defs><clipPath id="a"><path fill="#fff" d="M0 0h24v24H0z"/></clipPath></defs></svg>
